src/snap/gui/picocrypt.svg

<svg xmlns="http://www.w3.org/2000/svg" width="140" height="140" overflow="hidden"><defs><clipPath id="A"><path d="M143 118h140v140H143z"/></clipPath><linearGradient x1="143" y1="188" x2="283" y2="188" gradientUnits="userSpaceOnUse" spreadMethod="pad" id="B"><stop offset="0" stop-color="#00f2fe"/><stop offset=".021" stop-color="#03effe"/><stop offset=".293" stop-color="#24d2fe"/><stop offset=".554" stop-color="#3cbdfe"/><stop offset=".796" stop-color="#4ab0fe"/><stop offset="1" stop-color="#4facfe"/></linearGradient></defs><g clip-path="url(#A)" transform="translate(-143 -118)"><path d="M233.781 156.296c0-4.832 3.918-8.75 8.75-8.75a8.75 8.75 0 1 1 0 17.5 8.75 8.75 0 0 1-8.75-8.75zM178 252.513v-9.844h9.844a5.47 5.47 0 0 0 5.468-5.469v-9.843h9.844a5.47 5.47 0 0 0 5.469-5.469 5.47 5.47 0 0 0-5.469-5.469h-15.312a5.47 5.47 0 0 0-5.469 5.469v9.844h-9.844a5.47 5.47 0 0 0-5.469 5.469v9.843h-13.124v-16.328l48.494-48.495a5.47 5.47 0 0 0 .809-6.704 88.53 88.53 0 0 1-5.174-9.922c-1.804-4.058-.885-8.906 2.288-12.063l21.475-21.375c3.065-3.051 7.659-4.024 11.702-2.479 6.35 2.427 15.501 6.894 23.039 14.397 7.584 7.548 12.201 16.834 14.738 23.296a10.86 10.86 0 0 1-2.451 11.672l-21.735 21.633c-3.164 3.15-7.889 4.07-12.035 2.346-3.42-1.423-6.732-3.112-9.844-5.022a5.47 5.47 0 0 0-7.521 1.8 5.47 5.47 0 0 0 1.8 7.522c3.596 2.207 7.42 4.158 11.364 5.798 8.242 3.429 17.643 1.586 23.952-4.692l21.734-21.632c6.165-6.136 8.095-15.33 4.917-23.423-2.921-7.435-8.276-18.165-17.204-27.05-8.896-8.855-19.511-14.057-26.85-16.862a21.99 21.99 0 0 0-23.323 4.944l-21.475 21.375c-6.366 6.336-8.2 16.085-4.566 24.259 1.127 2.535 2.353 5.015 3.663 7.411l-47.133 47.133a5.47 5.47 0 0 0-1.602 3.868v24.062a5.47 5.47 0 0 0 5.469 5.469h24.062a5.47 5.47 0 0 0 5.469-5.469z" fill="url(#B)"/></g></svg>

<svg width="140" height="140" xmlns="http://www.w3.org/2000/svg" xmlns:xlink="http://www.w3.org/1999/xlink" overflow="hidden"><defs><clipPath id="clip0"><rect x="143" y="118" width="140" height="140"/></clipPath><linearGradient x1="143" y1="188" x2="283" y2="188" gradientUnits="userSpaceOnUse" spreadMethod="pad" id="fill1"><stop offset="0" stop-color="#00F2FE"/><stop offset="0.021" stop-color="#03EFFE"/><stop offset="0.293" stop-color="#24D2FE"/><stop offset="0.554" stop-color="#3CBDFE"/><stop offset="0.796" stop-color="#4AB0FE"/><stop offset="1" stop-color="#4FACFE"/></linearGradient></defs><g clip-path="url(#clip0)" transform="translate(-143 -118)"><path d="M233.781 156.296C233.781 151.464 237.699 147.546 242.531 147.546 247.364 147.546 251.281 151.464 251.281 156.296 251.281 161.129 247.364 165.046 242.531 165.046 237.699 165.046 233.781 161.129 233.781 156.296ZM178 252.513 178 242.669 187.844 242.669C190.864 242.669 193.312 240.221 193.312 237.2L193.312 227.357 203.156 227.357C206.177 227.357 208.625 224.909 208.625 221.888 208.625 218.868 206.177 216.419 203.156 216.419L187.844 216.419C184.823 216.419 182.375 218.868 182.375 221.888L182.375 231.732 172.531 231.732C169.511 231.732 167.062 234.18 167.062 237.201L167.062 247.044 153.938 247.044 153.938 230.716 202.432 182.221C204.214 180.439 204.548 177.671 203.241 175.517 201.346 172.393 199.605 169.055 198.067 165.595 196.263 161.537 197.182 156.689 200.355 153.532L221.83 132.157C224.895 129.106 229.489 128.133 233.532 129.678 239.882 132.105 249.033 136.572 256.571 144.075 264.155 151.623 268.772 160.909 271.309 167.371 272.893 171.403 271.93 175.985 268.858 179.043L247.123 200.676C243.959 203.826 239.234 204.746 235.088 203.022 231.668 201.599 228.356 199.91 225.244 198 222.67 196.42 219.302 197.226 217.723 199.8 216.143 202.374 216.948 205.741 219.523 207.322 223.119 209.529 226.943 211.48 230.887 213.12 239.129 216.549 248.53 214.706 254.839 208.428L276.573 186.796C282.738 180.66 284.668 171.466 281.49 163.373 278.569 155.938 273.214 145.208 264.286 136.323 255.39 127.468 244.775 122.266 237.436 119.461 229.38 116.382 220.225 118.323 214.113 124.405L192.638 145.78C186.272 152.116 184.438 161.865 188.072 170.039 189.199 172.574 190.425 175.054 191.735 177.45L144.602 224.583C143.576 225.609 143 227 143 228.451L143 252.513C143 255.534 145.448 257.982 148.469 257.982L172.531 257.982C175.552 257.982 178 255.534 178 252.513Z" fill="url(#fill1)"/></g></svg>
